X:5411
T:Radstock Jig
O:england
M:4/4
L:1/8
K:D
d4F3G|A2A2A4|B2 Bc dcde|f2f2B4|B2 Bc dcde|f2 f^g a2 ^ga|b^ge^g faf^d|B2B
2B4||a2a2 a^gfe|^def^g a2 (3ba^g|f2b2b4|f2b2b2 f^g|a2 ab a^gfe|^def^g a2
^ga|b^ge^g faf^d|B2B2B4||
